dist/assets/media/img/logo.svg

<svg width="269" height="57" viewBox="0 0 269 57" fill="none" xmlns="http://www.w3.org/2000/svg">
<path d="M56.143 47.2899C50.2704 47.2899 45.5078 45.2705 41.8553 41.2317C41.3539 40.6547 41.1391 40.0056 41.2107 39.2844C41.2823 38.5632 41.6046 37.9862 42.1775 37.5535C42.6789 37.0486 43.2518 36.8323 43.8964 36.9044C44.6125 36.9765 45.2213 37.3011 45.7226 37.878C48.2293 40.6908 51.7027 42.0972 56.143 42.0972C60.4401 42.0972 63.842 40.6908 66.3486 37.878C68.9269 35.0653 70.3592 31.0625 70.6457 25.8698H60.2131C59.4969 25.8698 58.8882 25.6534 58.3868 25.2207C57.9571 24.7158 57.7423 24.1028 57.7423 23.3816C57.7423 22.5882 57.9571 21.9752 58.3868 21.5425C58.8882 21.0376 59.4969 20.7852 60.2131 20.7852H70.5383C70.0369 15.8809 68.533 12.1306 66.0263 9.53419C63.5913 6.93781 60.2969 5.63962 56.143 5.63962C51.7027 5.63962 48.2293 7.08205 45.7226 9.96692C45.2213 10.4718 44.6125 10.7603 43.8964 10.8324C43.2518 10.8324 42.6789 10.616 42.1775 10.1833C41.6046 9.67843 41.2823 9.0654 41.2107 8.34418C41.1391 7.62296 41.3539 7.00993 41.8553 6.50508C45.5078 2.39414 50.2704 0.338669 56.143 0.338669C62.159 0.338669 66.9216 2.4302 70.4308 6.61326C74.0117 10.7963 75.8022 16.53 75.8022 23.8143C75.8022 31.0265 74.0117 36.7601 70.4308 41.0153C66.9216 45.1984 62.159 47.2899 56.143 47.2899Z" fill="black"/>
<path d="M203.602 47.3979C197.515 47.3979 192.717 45.3064 189.207 41.1234C185.698 36.8682 183.943 31.1345 183.943 23.9223C183.943 16.638 185.698 10.9044 189.207 6.72129C192.717 2.53823 197.515 0.446701 203.602 0.446701C208.902 0.446701 213.343 2.2858 216.923 5.96401C220.576 9.64222 222.545 14.6186 222.832 20.8932V21.2178C222.832 21.8669 222.581 22.4438 222.08 22.9487C221.65 23.4535 221.041 23.706 220.254 23.706H189.1C189.1 29.2593 190.246 33.7309 192.538 37.1206C194.901 40.5103 198.589 42.2052 203.602 42.2052C206.181 42.2052 208.58 41.6643 210.8 40.5824C213.092 39.4285 214.847 37.95 216.064 36.147C216.494 35.57 217.031 35.2094 217.675 35.0651C218.392 34.9209 219.036 35.0651 219.609 35.4979C220.182 35.8585 220.54 36.3994 220.683 37.1206C220.827 37.8418 220.683 38.4909 220.254 39.0679C218.535 41.5922 216.171 43.6116 213.164 45.1261C210.227 46.6407 207.04 47.3979 203.602 47.3979ZM189.422 18.6214H217.246C216.53 14.5104 214.954 11.3371 212.519 9.10131C210.156 6.86554 207.183 5.74765 203.602 5.74765C199.735 5.74765 196.584 6.86554 194.149 9.10131C191.786 11.3371 190.21 14.5104 189.422 18.6214Z" fill="black"/>
<path d="M229.879 47.1654C229.377 46.7327 229.055 46.1557 228.912 45.4345C228.84 44.7133 229.055 44.1002 229.556 43.5954L245.778 21.6546L232.242 4.12901C231.812 3.55204 231.633 2.939 231.705 2.28991C231.848 1.56869 232.171 0.955654 232.672 0.450802C233.245 0.0901915 233.854 -0.0540458 234.498 0.0180772C235.214 0.090198 235.787 0.414739 236.217 0.991714L249.001 17.5436L261.785 0.991714C262.214 0.414739 262.751 0.090198 263.396 0.0180772C264.112 -0.0540458 264.757 0.126258 265.33 0.55899C265.903 0.991721 266.225 1.56869 266.296 2.28991C266.368 2.939 266.189 3.55204 265.759 4.12901L252.224 21.6546L268.552 43.5954C268.911 44.1002 269.054 44.7133 268.982 45.4345C268.911 46.1557 268.588 46.7327 268.015 47.1654C267.514 47.5981 266.905 47.7424 266.189 47.5981C265.473 47.526 264.9 47.2375 264.47 46.7327L249.001 26.7189L233.531 46.7327C233.102 47.2375 232.529 47.526 231.812 47.5981C231.096 47.7424 230.452 47.5981 229.879 47.1654Z" fill="black"/>
<path fill-rule="evenodd" clip-rule="evenodd" d="M19.4182 2.24762C18.6355 -0.0231289 15.424 -0.023132 14.6413 2.24761L0.139935 44.3187C-0.425518 45.9592 0.793152 47.6683 2.52835 47.6683H2.6108C3.68874 47.6683 4.64794 46.9843 4.99922 45.9652L16.2336 13.3723C16.234 13.3711 16.2344 13.3699 16.2349 13.3687L17.0298 11.0626L17.8259 13.3723L29.0603 45.9653C29.061 45.9672 29.0617 45.9692 29.0623 45.9712C29.4153 46.987 30.3729 47.6683 31.4487 47.6683H31.5312C33.2664 47.6683 34.485 45.9592 33.9196 44.3187L19.4182 2.24762Z" fill="black"/>
<mask id="mask0_129_1028" style="mask-type:alpha" maskUnits="userSpaceOnUse" x="82" y="0" width="96" height="57">
<rect x="172.33" y="42.6232" width="5.04365" height="14.3767" rx="2.52182" fill="url(#paint0_radial_129_1028)"/>
<rect x="82.3848" y="42.6232" width="94.9887" height="5.07414" rx="2.52632" fill="url(#paint1_radial_129_1028)"/>
<rect x="82.3848" y="24.0179" width="5.04365" height="23.6793" rx="2.52182" fill="url(#paint2_radial_129_1028)"/>
<rect x="110.125" y="16.4069" width="5.04365" height="31.2905" rx="2.52182" fill="url(#paint3_radial_129_1028)"/>
<rect x="137.865" y="8.79547" width="5.04365" height="38.9017" rx="2.52182" fill="url(#paint4_radial_129_1028)"/>
<rect x="167.285" y="0.338669" width="5.04365" height="47.3586" rx="2.52182" fill="url(#paint5_radial_129_1028)"/>
</mask>
<g mask="url(#mask0_129_1028)">
<rect x="82.3848" y="0.338669" width="94.9887" height="56.6612" fill="url(#paint6_linear_129_1028)"/>
</g>
<defs>
<radialGradient id="paint0_radial_129_1028" cx="0" cy="0" r="1" gradientUnits="userSpaceOnUse" gradientTransform="translate(174.814 56.1364) rotate(-90) scale(12.1965 4.28661)">
<stop stop-color="#8AFF8F"/>
<stop offset="1" stop-color="#AB40FF"/>
</radialGradient>
<radialGradient id="paint1_radial_129_1028" cx="0" cy="0" r="1" gradientUnits="userSpaceOnUse" gradientTransform="translate(129.158 47.3926) rotate(-90) scale(4.30466 80.7311)">
<stop stop-color="#8AFF8F"/>
<stop offset="1" stop-color="#AB40FF"/>
</radialGradient>
<radialGradient id="paint2_radial_129_1028" cx="0" cy="0" r="1" gradientUnits="userSpaceOnUse" gradientTransform="translate(84.8683 46.2749) rotate(-90) scale(20.0884 4.28661)">
<stop stop-color="#8AFF8F"/>
<stop offset="1" stop-color="#AB40FF"/>
</radialGradient>
<radialGradient id="paint3_radial_129_1028" cx="0" cy="0" r="1" gradientUnits="userSpaceOnUse" gradientTransform="translate(112.609 45.818) rotate(-90) scale(26.5454 4.28661)">
<stop stop-color="#8AFF8F"/>
<stop offset="1" stop-color="#AB40FF"/>
</radialGradient>
<radialGradient id="paint4_radial_129_1028" cx="0" cy="0" r="1" gradientUnits="userSpaceOnUse" gradientTransform="translate(140.349 45.3606) rotate(-90) scale(33.0024 4.28661)">
<stop stop-color="#8AFF8F"/>
<stop offset="1" stop-color="#AB40FF"/>
</radialGradient>
<radialGradient id="paint5_radial_129_1028" cx="0" cy="0" r="1" gradientUnits="userSpaceOnUse" gradientTransform="translate(169.769 44.8527) rotate(-90) scale(40.1768 4.28661)">
<stop stop-color="#8AFF8F"/>
<stop offset="1" stop-color="#AB40FF"/>
</radialGradient>
<linearGradient id="paint6_linear_129_1028" x1="154.752" y1="3.67507" x2="77.1494" y2="20.2695" gradientUnits="userSpaceOnUse">
<stop stop-color="#AF9B8E"/>
<stop offset="1" stop-color="#46403C"/>
</linearGradient>
</defs>
</svg>

<svg width="269" height="57" fill="none" xmlns="http://www.w3.org/2000/svg"><path d="M56.143 47.29c-5.873 0-10.635-2.02-14.288-6.058-.501-.577-.716-1.226-.644-1.948a2.374 2.374 0 01.967-1.73c.5-.505 1.074-.722 1.718-.65.716.072 1.325.397 1.827.974 2.506 2.813 5.98 4.22 10.42 4.22 4.297 0 7.699-1.407 10.206-4.22 2.578-2.813 4.01-6.816 4.297-12.008H60.213c-.716 0-1.325-.217-1.826-.65-.43-.504-.645-1.117-.645-1.838 0-.794.215-1.407.645-1.84a2.478 2.478 0 011.826-.757h10.325c-.501-4.904-2.005-8.654-4.512-11.25-2.435-2.597-5.73-3.895-9.883-3.895-4.44 0-7.914 1.442-10.42 4.327a2.909 2.909 0 01-1.827.865 2.556 2.556 0 01-1.718-.649c-.573-.505-.896-1.118-.967-1.839-.072-.721.143-1.334.644-1.839C45.508 2.395 50.27.34 56.143.34c6.016 0 10.779 2.091 14.288 6.274 3.58 4.183 5.371 9.917 5.371 17.201 0 7.212-1.79 12.946-5.371 17.201-3.51 4.183-8.272 6.275-14.288 6.275zm147.459.108c-6.087 0-10.885-2.092-14.395-6.275-3.509-4.255-5.264-9.988-5.264-17.2 0-7.285 1.755-13.019 5.264-17.202 3.51-4.183 8.308-6.274 14.395-6.274 5.3 0 9.741 1.839 13.321 5.517 3.653 3.678 5.622 8.655 5.909 14.93v.324c0 .649-.251 1.226-.752 1.73-.43.505-1.039.758-1.826.758H189.1c0 5.553 1.146 10.025 3.438 13.415 2.363 3.39 6.051 5.084 11.064 5.084 2.579 0 4.978-.54 7.198-1.623 2.292-1.154 4.047-2.632 5.264-4.435.43-.577.967-.938 1.611-1.082.717-.144 1.361 0 1.934.433.573.36.931.901 1.074 1.623.144.72 0 1.37-.429 1.947-1.719 2.524-4.083 4.544-7.09 6.058-2.937 1.515-6.124 2.272-9.562 2.272zm-14.18-28.777h27.824c-.716-4.11-2.292-7.284-4.727-9.52-2.363-2.235-5.336-3.353-8.917-3.353-3.867 0-7.018 1.118-9.453 3.353-2.363 2.236-3.939 5.41-4.727 9.52zm40.457 28.544c-.502-.432-.824-1.01-.967-1.73-.072-.722.143-1.335.644-1.84l16.222-21.94-13.536-17.526c-.43-.577-.609-1.19-.537-1.84a3.525 3.525 0 01.967-1.838 2.765 2.765 0 011.826-.433 2.35 2.35 0 011.719.974l12.784 16.552L261.785.992c.429-.577.966-.902 1.611-.974a2.66 2.66 0 011.934.541 2.37 2.37 0 01.966 1.73c.072.65-.107 1.263-.537 1.84l-13.535 17.526 16.328 21.94c.359.505.502 1.118.43 1.84a2.372 2.372 0 01-.967 1.73c-.501.433-1.11.577-1.826.433-.716-.072-1.289-.36-1.719-.865l-15.469-20.014-15.47 20.014c-.429.505-1.002.793-1.719.865-.716.144-1.36 0-1.933-.433z" fill="#000"/><path fill-rule="evenodd" clip-rule="evenodd" d="M19.418 2.248c-.782-2.271-3.994-2.271-4.777 0L.14 44.318a2.526 2.526 0 002.388 3.35h.083a2.526 2.526 0 002.388-1.703l11.235-32.593v-.003l.796-2.306.796 2.31L29.06 45.964l.002.006a2.526 2.526 0 002.387 1.697h.082a2.526 2.526 0 002.389-3.35L19.418 2.249z" fill="#000"/><mask id="mask0_129_1028" style="mask-type:alpha" maskUnits="userSpaceOnUse" x="82" y="0" width="96" height="57"><rect x="172.33" y="42.623" width="5.044" height="14.377" rx="2.522" fill="url(#paint0_radial_129_1028)"/><rect x="82.385" y="42.623" width="94.989" height="5.074" rx="2.526" fill="url(#paint1_radial_129_1028)"/><rect x="82.385" y="24.018" width="5.044" height="23.679" rx="2.522" fill="url(#paint2_radial_129_1028)"/><rect x="110.125" y="16.407" width="5.044" height="31.291" rx="2.522" fill="url(#paint3_radial_129_1028)"/><rect x="137.865" y="8.795" width="5.044" height="38.902" rx="2.522" fill="url(#paint4_radial_129_1028)"/><rect x="167.285" y=".339" width="5.044" height="47.359" rx="2.522" fill="url(#paint5_radial_129_1028)"/></mask><g mask="url(#mask0_129_1028)"><path fill="url(#paint6_linear_129_1028)" d="M82.385.339h94.989V57H82.385z"/></g><defs><radialGradient id="paint0_radial_129_1028" cx="0" cy="0" r="1" gradientUnits="userSpaceOnUse" gradientTransform="matrix(0 -12.1965 4.28661 0 174.814 56.136)"><stop stop-color="#8AFF8F"/><stop offset="1" stop-color="#AB40FF"/></radialGradient><radialGradient id="paint1_radial_129_1028" cx="0" cy="0" r="1" gradientUnits="userSpaceOnUse" gradientTransform="matrix(0 -4.30466 80.7311 0 129.158 47.393)"><stop stop-color="#8AFF8F"/><stop offset="1" stop-color="#AB40FF"/></radialGradient><radialGradient id="paint2_radial_129_1028" cx="0" cy="0" r="1" gradientUnits="userSpaceOnUse" gradientTransform="matrix(0 -20.0884 4.28661 0 84.868 46.275)"><stop stop-color="#8AFF8F"/><stop offset="1" stop-color="#AB40FF"/></radialGradient><radialGradient id="paint3_radial_129_1028" cx="0" cy="0" r="1" gradientUnits="userSpaceOnUse" gradientTransform="matrix(0 -26.5454 4.28661 0 112.609 45.818)"><stop stop-color="#8AFF8F"/><stop offset="1" stop-color="#AB40FF"/></radialGradient><radialGradient id="paint4_radial_129_1028" cx="0" cy="0" r="1" gradientUnits="userSpaceOnUse" gradientTransform="matrix(0 -33.0024 4.28661 0 140.349 45.36)"><stop stop-color="#8AFF8F"/><stop offset="1" stop-color="#AB40FF"/></radialGradient><radialGradient id="paint5_radial_129_1028" cx="0" cy="0" r="1" gradientUnits="userSpaceOnUse" gradientTransform="matrix(0 -40.1768 4.28661 0 169.769 44.853)"><stop stop-color="#8AFF8F"/><stop offset="1" stop-color="#AB40FF"/></radialGradient><linearGradient id="paint6_linear_129_1028" x1="154.752" y1="3.675" x2="77.149" y2="20.27" gradientUnits="userSpaceOnUse"><stop stop-color="#AF9B8E"/><stop offset="1" stop-color="#46403C"/></linearGradient></defs></svg>
